X:506
T:Highland Skip 2
S:My interpretation
Z:Nigel Gatherer
M:4/4
L:1/8
K:D
A2FA DAFA | A2FA BEEB | A2FA DAFA | ABde fedB  |
A2GA FAEA | DAFA BEEB | A2FA DAFA | ABde fdd2 ||
Adfd adfd | Adfd gee2 | Adfd adfd | ABde fdd2  |
Adfd adfd | Adfd gee2 | fgfe dedB | ABde fedB |]
